X:320
T:In Continental Mood
C:Andy Cutting
M:3/4
L:1/8
K:G
ga | b2 bbab | g2 gbab | g2 gbab | gabagf | 
e2 eefg | d2 defg | c2 cefg | aabagf | 
b2 bbab | g2 gbab | g2 gbab | gabagf | 
e2 eefg | d2 defg | a2 bagf | g3dBA || 
G2BGBd | F2BFBd | E2GEGB | AABAGF | 
G2BGBd | F2BFBd | E2GEGB | A4GA | 
B2_eB_ef | gagfef | d2fdfa | 
bc'bagf | e2eefg | d2defg | a2bagf | g4 || 

